X:1
T:Finalen efter Bart Brashers
R:schottis/snoa
C:Bart Brashers
Z:Bart Brashers, bart@hpcc.epa.gov
M:2/4
L:1/16
Q:1/4=80
K:C "fgp=1"
A2Ac B4   | A2Ac BAG2 | A2Ac B2cd | (ed)cB AGF2 |
A2Ac B2G2 | A2Ac BAG2 | A2Ac Bcd2 | c4 c4    :|
|: d2BG (dB)GB | d2BG c4 | d2BA G2AB | c4 c4 :|
|: A>_BA<G A2A=B | c2dB G4 | A>_BA<G A2A=B | c4 c4  :|
|: d2BG (dB)GB | d2BG c4 | d2BA G2AB | c4 c4 :|
